Sources/FrostedUI/Resources/Icons.xcassets/participants16.imageset/participants-16.svg

<svg width="16" height="16" viewBox="0 0 16 16" fill="none" xmlns="http://www.w3.org/2000/svg" data-fui-icon="true">
  <path
    fill-rule="evenodd"
    clip-rule="evenodd"
    d="M7.00018 9C8.58027 9.00004 9.78401 9.32868 10.6926 9.85742C11.6039 10.3879 12.1747 11.0943 12.5256 11.7764C13.1061 12.9053 12.3564 14.063 11.3312 14.3662C10.3391 14.6594 8.79992 15 7.00018 15C5.20047 15 3.66127 14.6594 2.66912 14.3662C1.64373 14.0632 0.894065 12.9055 1.47479 11.7764C1.82567 11.0942 2.39635 10.3879 3.30779 9.85742C4.21637 9.32873 5.42007 9 7.00018 9ZM7.00018 10.5C5.62902 10.5 4.69719 10.7845 4.0617 11.1543C3.42951 11.5224 3.04646 12.0008 2.80877 12.4629C2.76565 12.5468 2.76871 12.6249 2.80877 12.7041C2.85345 12.7922 2.9493 12.8849 3.09393 12.9277C3.99171 13.193 5.38372 13.5 7.00018 13.5C8.61668 13.5 10.0087 13.193 10.9064 12.9277C11.051 12.8848 11.147 12.7922 11.1916 12.7041C11.2316 12.625 11.2346 12.5468 11.1916 12.4629C10.9539 12.0008 10.5708 11.5224 9.93865 11.1543C9.3032 10.7845 8.37133 10.5 7.00018 10.5ZM10.7883 7.7627C10.9193 7.3698 11.3446 7.15711 11.7375 7.28809C13.3087 7.81186 14.4606 8.37435 15.5861 9.78125C15.8447 10.1046 15.7922 10.5772 15.4689 10.8359C15.1455 11.0947 14.673 11.0421 14.4142 10.7188C13.5399 9.6258 12.6913 9.18808 11.2629 8.71191C10.8699 8.58093 10.6573 8.15565 10.7883 7.7627ZM7.00018 1C8.93303 1.00017 10.5002 2.56711 10.5002 4.5C10.5002 6.43289 8.93303 7.99983 7.00018 8C5.06718 8 3.50018 6.433 3.50018 4.5C3.50018 2.567 5.06718 1 7.00018 1ZM7.00018 2.5C5.89561 2.5 5.00018 3.39543 5.00018 4.5C5.00018 5.60457 5.89561 6.5 7.00018 6.5C8.1046 6.49983 9.00018 5.60447 9.00018 4.5C9.00018 3.39553 8.1046 2.50017 7.00018 2.5ZM10.7502 0C12.683 0.000168011 14.2502 1.56711 14.2502 3.5C14.2502 4.24822 14.0145 4.94409 13.6135 5.51367C13.375 5.85212 12.9071 5.93261 12.5685 5.69434C12.2299 5.45583 12.1484 4.98806 12.3869 4.64941C12.6157 4.32441 12.7502 3.92899 12.7502 3.5C12.7502 2.39553 11.8546 1.50017 10.7502 1.5C10.336 1.5 10.0002 1.16421 10.0002 0.75C10.0002 0.335786 10.336 0 10.7502 0Z"
    fill="currentColor"
  />
</svg>

<svg xmlns="http://www.w3.org/2000/svg" width="16" height="16" fill="none" data-fui-icon="true" viewBox="0 0 16 16"><path fill="currentColor" fill-rule="evenodd" d="M7 9c1.58 0 2.784.329 3.693.857a4.67 4.67 0 0 1 1.833 1.92c.58 1.128-.17 2.286-1.195 2.59-.992.292-2.531.633-4.33.633-1.8 0-3.34-.34-4.332-.634-1.025-.303-1.775-1.46-1.194-2.59a4.67 4.67 0 0 1 1.833-1.919C4.216 9.33 5.42 9 7 9m0 1.5c-1.371 0-2.303.284-2.938.654a3.17 3.17 0 0 0-1.253 1.309.25.25 0 0 0 0 .241c.044.088.14.18.285.224.898.265 2.29.572 3.906.572s3.009-.307 3.906-.572a.46.46 0 0 0 .286-.224.25.25 0 0 0 0-.241 3.17 3.17 0 0 0-1.253-1.309C9.303 10.784 8.37 10.5 7 10.5m3.788-2.737a.75.75 0 0 1 .95-.475c1.57.524 2.723 1.086 3.848 2.493a.75.75 0 0 1-1.172.938c-.874-1.093-1.723-1.53-3.151-2.007a.75.75 0 0 1-.475-.95M7 1a3.5 3.5 0 1 1 0 7 3.5 3.5 0 0 1 0-7m0 1.5a2 2 0 1 0 0 4 2 2 0 0 0 0-4M10.75 0a3.5 3.5 0 0 1 2.864 5.514.75.75 0 0 1-1.227-.865A2 2 0 0 0 10.75 1.5a.75.75 0 0 1 0-1.499" clip-rule="evenodd"/></svg>
